X:30
M:C
L:1/8
K:F# Minor
g|afcf cfaf| gebe gbeg|afcf cfaf|ecBG cAAg|afcf cfaf|gebe gbeg|
agfg efcf|ecBG AFF||

